src/img/svg/sky-sports-logo.svg

<svg width="210" height="34" viewBox="0 0 210 34" fill="none" xmlns="http://www.w3.org/2000/svg">
<path d="M62.3474 0.000976562H3.10737C1.39806 0.000976562 0 1.39026 0 3.08894V30.9133C0 32.6116 1.39806 34 3.10737 34L62.3474 33.9962V0.000976562Z" fill="#828282"/>
<path opacity="0.8" d="M62.3471 0.715698H2.44434C2.44434 0.715698 3.75347 7.7297 12.014 13.6107C12.014 13.6107 16.2428 16.7752 18.9974 16.7467H62.3458V0.715698H62.3471Z" fill="#DADADA"/>
<path d="M62.3477 33.994L206.895 33.9914C208.601 33.9914 210 32.603 210 30.9051V3.08796C210 1.38929 208.601 0 206.895 0H62.3477V33.994Z" fill="#A4A1A1"/>
<path opacity="0.8" d="M62.3477 0.715698H207.536C207.536 0.715698 206.227 7.7297 197.968 13.6107C197.968 13.6107 193.737 16.7752 191.961 16.7467H62.3481L62.3477 0.715698Z" fill="#E3E8ED"/>
<path d="M41.1764 31.5749C41.583 31.7828 42.409 32.0293 43.4437 32.0577C45.227 32.0951 46.1966 31.4173 46.9166 29.8299L56.4717 8.64683C56.0779 8.43816 55.1998 8.204 54.4922 8.1904C53.2605 8.16447 51.6089 8.41224 50.5614 10.9141L47.4741 18.1687L41.4048 8.34679C41.0114 8.2295 40.055 8.05993 39.3594 8.05993C37.211 8.05993 36.0182 8.84105 34.7727 10.1836L28.8757 16.5937L33.6197 24.0178C34.4978 25.3727 35.6518 26.0633 37.5257 26.0633C38.7578 26.0633 39.7797 25.7781 40.2512 25.5563L34.5372 16.997L38.5868 12.7237L45.2317 23.093L41.1833 31.5749H41.1764ZM28.6418 23.5618C28.6418 25.1249 28.0257 26.0254 24.959 26.0254C24.5528 26.0254 24.1997 25.9978 23.8585 25.9456V5.23333C23.8585 3.65705 24.3955 2.01489 27.4883 2.01489C27.8821 2.01489 28.2745 2.05484 28.6418 2.13219V23.5618ZM22.3163 20.436C22.3163 23.3535 20.4027 25.4768 16.5099 25.8946C13.6924 26.195 9.61666 25.8423 7.67734 25.6209C7.6115 25.3076 7.55934 24.9179 7.55934 24.6043C7.55934 22.0633 8.93516 21.4785 10.2323 21.4785C11.5825 21.4785 13.7061 21.7122 15.279 21.7122C17.0212 21.7122 17.5454 21.1253 17.5454 20.5665C17.5454 19.8359 16.8515 19.538 15.5013 19.2766L11.8052 18.5733C8.7385 17.9859 7.10059 15.8763 7.10059 13.6353C7.10059 10.9137 9.03991 8.63323 12.854 8.21675C15.7373 7.90353 19.2492 8.25499 21.1765 8.48959C21.2415 8.81555 21.2808 9.1275 21.2808 9.46664C21.2808 12.0072 19.9311 12.5542 18.6335 12.5542C17.6373 12.5542 16.0922 12.3719 14.3218 12.3719C12.5257 12.3719 11.7796 12.8674 11.7796 13.4658C11.7796 14.1041 12.4863 14.3642 13.6146 14.5597L17.1397 15.2116C20.7567 15.8755 22.3163 17.9209 22.3163 20.436ZM89.4539 21.8461C89.4539 18.1997 87.0657 16.4262 83.2623 15.5903L76.5991 14.0863C75.3878 13.8185 74.378 13.4496 74.378 12.2461C74.378 10.9413 75.4216 10.4399 78.2143 10.4399C81.5128 10.4399 82.2866 10.6069 85.2816 10.6069C86.6621 10.6069 88.0743 9.97067 88.0743 7.2618C88.0743 6.92648 88.0422 6.55844 87.9746 6.22398C85.9545 6.05738 82.3542 5.85636 77.9129 5.85636C71.2159 5.85636 68.6579 8.73353 68.6579 12.4127C68.6579 15.858 70.8461 17.7667 74.7157 18.6689L81.3781 20.2069C82.9267 20.5733 83.7685 21.2435 83.7685 22.2142C83.7685 23.5189 82.5906 24.0212 79.7979 24.0212C76.5007 24.0212 74.9859 23.7879 71.9902 23.7879C70.6101 23.7879 69.1975 24.4215 69.1975 27.1317C69.1975 27.4662 69.2312 27.8333 69.2979 28.1687C71.3185 28.368 75.6585 28.6034 80.0998 28.6034C86.7993 28.6026 89.4586 25.7598 89.4586 21.8461H89.4539ZM144.44 15.9588V10.3731H149.723C151.979 10.3731 153.762 10.7063 153.762 13.048C153.762 15.0204 152.416 15.9588 149.723 15.9588H144.437H144.44ZM144.406 20.3735H147.198L152.59 26.7624C153.596 27.9999 154.574 28.6362 156.863 28.6362C158.411 28.6362 159.453 28.436 160.292 28.0331L153.288 19.9732C157.227 19.1372 159.211 16.5933 159.211 12.8474C159.211 8.23119 156.384 5.95666 150.665 5.95666L142.488 5.92393C139.83 6.02381 138.953 6.92648 138.953 9.33531V28.269C139.356 28.3353 139.83 28.3671 140.3 28.3671C143.664 28.3671 144.438 27.399 144.438 25.6591L144.412 20.3731H144.406V20.3735ZM97.3592 16.561V10.4059H102.844C105.571 10.4059 106.918 11.4093 106.918 13.3838C106.918 15.4917 105.571 16.5614 102.844 16.5614L97.3592 16.561ZM91.8738 28.2694C92.2783 28.3361 92.7503 28.368 93.2193 28.368C96.5857 28.368 97.3592 27.4003 97.3592 25.66V21.0769H103.08C109.306 21.0769 112.401 18.4016 112.401 13.3838C112.401 8.53294 109.305 5.95708 103.45 5.95708H95.4066C92.7152 5.95708 91.8738 6.99405 91.8738 9.36889V28.2694ZM130.609 16.8287C130.609 19.4058 130.172 21.2095 129.297 22.2813C128.456 23.3846 127.075 23.8869 125.191 23.8869C123.272 23.8525 121.895 23.3183 121.018 22.2813C120.145 21.2448 119.706 19.4386 119.706 16.8287C119.706 14.2533 120.178 12.4471 121.052 11.4097C121.927 10.3391 123.306 9.83765 125.19 9.83765C127.075 9.83765 128.421 10.3391 129.296 11.4097C130.169 12.4471 130.609 14.2533 130.609 16.8287ZM125.188 28.3361C128.721 28.3361 131.448 27.5002 133.367 25.7943C135.282 24.1207 136.261 21.11 136.261 16.8291C136.225 12.6154 135.251 9.67063 133.265 7.93073C131.279 6.2244 128.588 5.35572 125.187 5.35572C121.789 5.35572 119.096 6.2244 117.111 7.93073C115.126 9.67063 114.149 12.6149 114.115 16.8291C114.115 21.11 115.091 24.1211 117.01 25.7943C118.929 27.5006 121.657 28.3361 125.189 28.3361H125.188ZM173.684 10.5406H178.093C179.54 10.5406 181.019 9.87122 181.019 7.02635C181.019 6.69316 180.986 6.29112 180.919 5.95708H163.791C162.344 5.95708 160.862 6.62644 160.862 9.46876C160.862 9.8045 160.896 10.2044 160.965 10.5406H168.199V28.269C168.604 28.3353 169.074 28.3671 169.546 28.3671C172.908 28.3671 173.684 27.399 173.684 25.6591V10.5406ZM202.521 21.8461C202.521 18.1997 200.129 16.4262 196.329 15.5903L189.666 14.0863C188.454 13.8185 187.445 13.4496 187.445 12.2461C187.445 10.9413 188.487 10.4399 191.28 10.4399C194.579 10.4399 195.354 10.6069 198.347 10.6069C199.728 10.6069 201.141 9.97067 201.141 7.2618C201.141 6.92648 201.11 6.55844 201.042 6.22398C199.022 6.05738 195.421 5.85636 190.978 5.85636C184.283 5.85636 181.724 8.73353 181.724 12.4127C181.724 15.858 183.911 17.7667 187.782 18.6689L194.445 20.2069C195.994 20.5733 196.835 21.2435 196.835 22.2142C196.835 23.5189 195.656 24.0212 192.865 24.0212C189.566 24.0212 188.053 23.7879 185.055 23.7879C183.675 23.7879 182.262 24.4215 182.262 27.1317C182.262 27.4662 182.296 27.8333 182.364 28.1687C184.382 28.368 188.724 28.6034 193.166 28.6034C199.866 28.6026 202.525 25.7598 202.525 21.8461H202.521Z" fill="white"/>
</svg>

<svg width="210" height="34" fill="none" xmlns="http://www.w3.org/2000/svg"><path d="M62.347.001H3.107C1.398.001 0 1.391 0 3.089v27.824C0 32.612 1.398 34 3.107 34l59.24-.004V.001z" fill="#828282"/><path opacity=".8" d="M62.347.716H2.444s1.31 7.014 9.57 12.895c0 0 4.229 3.164 6.983 3.136h43.349V.716h.001z" fill="#DADADA"/><path d="M62.348 33.994l144.547-.003c1.706 0 3.105-1.388 3.105-3.086V3.088C210 1.389 208.601 0 206.895 0H62.348v33.994z" fill="#A4A1A1"/><path opacity=".8" d="M62.348.716h145.188s-1.309 7.014-9.568 12.895c0 0-4.231 3.164-6.007 3.136H62.348V.716z" fill="#E3E8ED"/><path d="M41.176 31.575c.407.208 1.233.454 2.268.483 1.783.037 2.753-.64 3.473-2.228l9.555-21.183c-.394-.209-1.272-.443-1.98-.457-1.231-.026-2.883.222-3.93 2.724l-3.088 7.255-6.07-9.822a8.928 8.928 0 0 0-2.045-.287c-2.148 0-3.34.781-4.586 2.124l-5.897 6.41 4.744 7.424c.878 1.355 2.032 2.045 3.906 2.045 1.232 0 2.254-.285 2.725-.507l-5.714-8.559 4.05-4.273 6.645 10.369-4.049 8.482h-.007zm-12.534-8.013c0 1.563-.616 2.463-3.683 2.463-.406 0-.76-.027-1.1-.08V5.234c0-1.576.536-3.218 3.63-3.218.393 0 .785.04 1.153.117v21.43zm-6.326-3.126c0 2.918-1.913 5.04-5.806 5.459-2.818.3-6.893-.053-8.833-.274a5.348 5.348 0 0 1-.118-1.017c0-2.54 1.376-3.125 2.673-3.125 1.35 0 3.474.233 5.047.233 1.742 0 2.266-.587 2.266-1.145 0-.731-.694-1.029-2.044-1.29l-3.696-.704c-3.066-.587-4.704-2.697-4.704-4.938 0-2.721 1.939-5.002 5.753-5.418 2.883-.313 6.395.038 8.323.273.064.326.104.637.104.977 0 2.54-1.35 3.087-2.647 3.087-.997 0-2.542-.182-4.312-.182-1.796 0-2.542.495-2.542 1.094 0 .638.706.898 1.835 1.094l3.525.652c3.617.664 5.176 2.709 5.176 5.224zm67.138 1.41c0-3.646-2.388-5.42-6.192-6.256L76.6 14.086c-1.211-.268-2.221-.636-2.221-1.84 0-1.305 1.044-1.806 3.836-1.806 3.299 0 4.073.167 7.068.167 1.38 0 2.792-.636 2.792-3.345a5.39 5.39 0 0 0-.1-1.038c-2.02-.167-5.62-.368-10.061-.368-6.697 0-9.255 2.878-9.255 6.557 0 3.445 2.188 5.354 6.058 6.256l6.662 1.538c1.549.366 2.39 1.037 2.39 2.007 0 1.305-1.177 1.807-3.97 1.807-3.297 0-4.812-.233-7.808-.233-1.38 0-2.792.634-2.792 3.344 0 .334.033.701.1 1.037 2.02.199 6.36.434 10.802.434 6.7 0 9.359-2.843 9.359-6.757h-.005zm54.986-5.887v-5.586h5.283c2.256 0 4.039.333 4.039 2.675 0 1.972-1.346 2.91-4.039 2.91h-5.286.003zm-.034 4.415h2.792l5.392 6.388c1.006 1.238 1.984 1.874 4.273 1.874 1.548 0 2.59-.2 3.429-.603l-7.004-8.06c3.939-.836 5.923-3.38 5.923-7.126 0-4.616-2.827-6.89-8.546-6.89l-8.177-.033c-2.658.1-3.535 1.002-3.535 3.411V28.27c.403.066.877.098 1.347.098 3.364 0 4.138-.968 4.138-2.708l-.026-5.286h-.006zM97.359 16.56v-6.155h5.485c2.727 0 4.074 1.003 4.074 2.978 0 2.108-1.347 3.177-4.074 3.177h-5.485zm-5.485 11.708a8.52 8.52 0 0 0 1.345.099c3.367 0 4.14-.968 4.14-2.708v-4.583h5.721c6.226 0 9.321-2.675 9.321-7.693 0-4.851-3.096-7.427-8.951-7.427h-8.043c-2.692 0-3.533 1.037-3.533 3.412v18.9zm38.735-11.44c0 2.577-.437 4.38-1.312 5.452-.841 1.104-2.222 1.606-4.106 1.606-1.919-.035-3.296-.569-4.173-1.606-.873-1.036-1.312-2.842-1.312-5.452 0-2.576.472-4.382 1.346-5.42.875-1.07 2.254-1.571 4.138-1.571 1.885 0 3.231.501 4.106 1.572.873 1.037 1.313 2.843 1.313 5.419zm-5.421 11.507c3.533 0 6.26-.836 8.179-2.542 1.915-1.673 2.894-4.684 2.894-8.965-.036-4.214-1.01-7.158-2.996-8.898-1.986-1.707-4.677-2.575-8.078-2.575-3.398 0-6.091.868-8.076 2.575-1.985 1.74-2.962 4.684-2.996 8.898 0 4.281.976 7.292 2.895 8.965 1.919 1.707 4.647 2.542 8.179 2.542h-.001zm48.496-17.795h4.409c1.447 0 2.926-.67 2.926-3.515a5.78 5.78 0 0 0-.1-1.069h-17.128c-1.447 0-2.929.67-2.929 3.512 0 .336.034.735.103 1.072h7.234v17.728c.405.066.875.098 1.347.098 3.362 0 4.138-.968 4.138-2.708V10.541zm28.837 11.305c0-3.646-2.392-5.42-6.192-6.256l-6.663-1.504c-1.212-.268-2.221-.636-2.221-1.84 0-1.305 1.042-1.806 3.835-1.806 3.299 0 4.074.167 7.067.167 1.381 0 2.794-.636 2.794-3.345 0-.336-.031-.704-.099-1.038-2.02-.167-5.621-.368-10.064-.368-6.695 0-9.254 2.878-9.254 6.557 0 3.445 2.187 5.354 6.058 6.256l6.663 1.538c1.549.366 2.39 1.037 2.39 2.007 0 1.305-1.179 1.807-3.97 1.807-3.299 0-4.812-.233-7.81-.233-1.38 0-2.793.634-2.793 3.344 0 .334.034.701.102 1.037 2.018.199 6.36.434 10.802.434 6.7 0 9.359-2.843 9.359-6.757h-.004z" fill="#fff"/></svg>
